app/dist/common/images/nissan.svg

<svg height="18" width="18" xmlns="http://www.w3.org/2000/svg"><path d="m0 0h18v18h-18z" fill="#be0734"/><g fill="#fff"><path d="m13.096 10.382c-.63 1.643-2.227 2.993-4.096 2.993-1.87 0-3.465-1.35-4.096-2.993h-1.904v.31c.814 0 1.528.516 2.01 1.173.913 1.25 2.36 2.135 3.99 2.135s3.076-.885 3.991-2.135c.481-.657 1.195-1.172 2.009-1.172v-.311zm-8.193-2.764c.63-1.645 2.227-2.993 4.097-2.993s3.467 1.348 4.097 2.993h1.903v-.315c-.814 0-1.528-.515-2.01-1.172-.914-1.249-2.36-2.131-3.99-2.131-1.628 0-3.076.884-3.99 2.134-.483.656-1.197 1.172-2.01 1.172v.312z"/><path d="m2.985 8.5h12.015v1h-12.015z" opacity=".6"/></g></svg>

<!-- by TradingView --><svg width="18" height="18" xmlns="http://www.w3.org/2000/svg"><path fill="#BE0734" d="M0 0h18v18H0z"/><path d="M13.096 10.382c-.63 1.643-2.227 2.993-4.096 2.993-1.87 0-3.465-1.35-4.096-2.993H3v.31c.814 0 1.528.516 2.01 1.173C5.923 13.115 7.37 14 9 14s3.076-.885 3.991-2.135c.481-.657 1.195-1.172 2.009-1.172v-.311h-1.904zM4.903 7.618C5.533 5.973 7.13 4.625 9 4.625c1.87 0 3.467 1.348 4.097 2.993H15v-.315c-.814 0-1.528-.515-2.01-1.172C12.076 4.882 10.63 4 9 4c-1.628 0-3.076.884-3.99 2.134C4.527 6.79 3.813 7.306 3 7.306v.312h1.903z" fill="#fff"/><path opacity=".6" fill="#fff" d="M2.985 8.5H15v1H2.985z"/></svg>
